X:1
T:Oh, My Liver and My Lungs
M:2/4
L:1/4
K:Bb
 d3/2 c/2| B/2G/2 G/2G/2| G3/2 G/2| D G3/4 G/4| G z/2 A/2| B G| G3/2 A/2|\
 B G| G3/2 A/2| B G| G3/2 A/2| B G| G A3/4 A/4| G d| c B| G3/2- ^F/2|\
 Gd/2-c/2| B3/4- G/4 G| G G3/4- D/4| D G| G3/2 A/2| B G| G G3/4- =E/4|\
 D- G| z d/2c/2| B3/4- G/4 G| G G3/4- =E/4| D G| G3/2 A/2| B d| c B|\
 G2|
